packages/bezier-icons/icons/kakao-filled.svg

<svg width="24" height="24" viewBox="0 0 24 24" fill="none" xmlns="http://www.w3.org/2000/svg">
<path d="M9.67628 9.6725L10.3088 11.4738H9.04378L9.67628 9.6725Z" fill="#313234"/>
<path fill-rule="evenodd" clip-rule="evenodd" d="M12 2C5.92938 2 1 5.86375 1 10.6762C1 13.77 3.0625 16.4856 6.15625 18.0325C6.11819 18.1673 6.04025 18.4389 5.94236 18.7801C5.61586 19.918 5.06736 21.8296 5.03563 22.02C5.02916 22.0687 5.03524 22.1183 5.05328 22.164C5.07133 22.2097 5.10075 22.2501 5.13875 22.2812C5.1801 22.2986 5.22451 22.3076 5.26937 22.3076C5.31424 22.3076 5.35865 22.2986 5.4 22.2812C5.74375 22.2331 9.415 19.655 10.0475 19.2081C10.6943 19.2996 11.3468 19.3455 12 19.3456C18.0775 19.3456 23 15.4681 23 10.6762C23 5.88437 18.0706 2 12 2ZM5.47844 13.5302C5.59816 13.6435 5.75775 13.705 5.92253 13.7013C6.08428 13.7013 6.23961 13.638 6.35526 13.5249C6.47091 13.4118 6.53768 13.258 6.54128 13.0962V9.32187H7.54503C7.70913 9.32187 7.86651 9.25669 7.98255 9.14065C8.09859 9.02461 8.16378 8.86723 8.16378 8.70312C8.16378 8.53902 8.09859 8.38164 7.98255 8.2656C7.86651 8.14956 7.70913 8.08437 7.54503 8.08437H4.29315C4.12905 8.08437 3.97167 8.14956 3.85563 8.2656C3.73959 8.38164 3.6744 8.53902 3.6744 8.70312C3.6744 8.86723 3.73959 9.02461 3.85563 9.14065C3.97167 9.25669 4.12905 9.32187 4.29315 9.32187H5.28315V13.0962C5.28854 13.261 5.35872 13.4169 5.47844 13.5302ZM11.1759 13.6425C11.2705 13.6928 11.378 13.7133 11.4844 13.7013V13.6944C11.6242 13.6918 11.7621 13.6615 11.89 13.605C12.0413 13.5225 12.2338 13.3025 12.0413 12.7044L10.5219 8.71C10.4651 8.53027 10.3525 8.37332 10.2004 8.26192C10.0484 8.15051 9.86477 8.09046 9.67628 8.09046C9.48778 8.09046 9.30419 8.15051 9.15213 8.26192C9.00008 8.37332 8.88747 8.53027 8.83065 8.71L7.31128 12.7044C7.11878 13.3025 7.28378 13.5225 7.46253 13.605C7.58996 13.6629 7.72817 13.6934 7.86815 13.6944C7.97368 13.707 8.08051 13.6866 8.17404 13.6362C8.26757 13.5857 8.34322 13.5076 8.39065 13.4125L8.7069 12.5875H10.6663L10.955 13.4194C11.0044 13.5144 11.0814 13.5922 11.1759 13.6425ZM12.8304 13.5741C12.9032 13.6018 12.9809 13.6146 13.0588 13.6119L15.1213 13.605C15.2029 13.6139 15.2854 13.6055 15.3636 13.5803C15.4417 13.5552 15.5137 13.5139 15.5748 13.4591C15.6359 13.4043 15.6847 13.3372 15.7182 13.2623C15.7517 13.1873 15.7689 13.1061 15.7689 13.0241C15.7689 12.942 15.7517 12.8608 15.7182 12.7859C15.6847 12.7109 15.6359 12.6439 15.5748 12.589C15.5137 12.5342 15.4417 12.4929 15.3636 12.4678C15.2854 12.4426 15.2029 12.4342 15.1213 12.4431H13.7463V8.71687C13.7463 8.54548 13.6782 8.3811 13.557 8.25991C13.4358 8.13871 13.2714 8.07062 13.1 8.07062C12.9286 8.07062 12.7643 8.13871 12.6431 8.25991C12.5219 8.3811 12.4538 8.54548 12.4538 8.71687V13.0344C12.4546 13.1123 12.4711 13.1893 12.5021 13.2607C12.5332 13.3322 12.5782 13.3968 12.6346 13.4506C12.691 13.5044 12.7576 13.5464 12.8304 13.5741ZM16.138 13.5116C16.2564 13.6313 16.4173 13.6994 16.5857 13.7013V13.6944C16.7532 13.6934 16.9136 13.6268 17.0325 13.5087C17.1481 13.3854 17.2141 13.2239 17.2182 13.055V11.68L17.4382 11.46L18.93 13.4331C18.9872 13.5122 19.0628 13.576 19.1502 13.6192C19.2377 13.6623 19.3344 13.6834 19.4319 13.6806C19.5708 13.6859 19.7071 13.6421 19.8169 13.5569C19.8841 13.5071 19.9403 13.4439 19.9819 13.3712C20.0233 13.299 20.0513 13.2198 20.0644 13.1375C20.0766 13.0553 20.072 12.9714 20.0507 12.891C20.0294 12.8106 19.992 12.7354 19.9407 12.67L18.38 10.6075L19.8238 9.15687C19.8748 9.10735 19.9142 9.04714 19.9392 8.98057C19.9641 8.914 19.974 8.84273 19.9682 8.77187C19.956 8.61959 19.8873 8.47735 19.7757 8.37312C19.7204 8.31322 19.6535 8.26524 19.579 8.23214C19.5045 8.19904 19.424 8.18151 19.3425 8.18062C19.2775 8.18046 19.213 8.19313 19.1528 8.21791C19.0927 8.24268 19.038 8.27907 18.9919 8.325L17.2182 10.0919V8.71687C17.2182 8.54913 17.1515 8.38825 17.0329 8.26963C16.9143 8.15101 16.7534 8.08437 16.5857 8.08437C16.4179 8.08437 16.257 8.15101 16.1384 8.26963C16.0198 8.38825 15.9532 8.54913 15.9532 8.71687V13.0619C15.9531 13.2303 16.0196 13.3919 16.138 13.5116Z" fill="#313234"/>
</svg>

<svg xmlns="http://www.w3.org/2000/svg" width="24" height="24" fill="none" viewBox="0 0 24 24"><path fill="#313234" d="m9.676 9.673.633 1.8H9.044z"/><path fill="#313234" fill-rule="evenodd" d="M12 2C5.93 2 1 5.864 1 10.676c0 3.094 2.063 5.81 5.156 7.356l-.214.748c-.326 1.138-.875 3.05-.906 3.24a.29.29 0 0 0 .103.261.34.34 0 0 0 .261 0c.344-.048 4.015-2.626 4.647-3.073q.972.138 1.953.138c6.078 0 11-3.878 11-8.67S18.07 2 12 2M5.478 13.53c.12.114.28.175.445.171a.62.62 0 0 0 .618-.605V9.322h1.004a.619.619 0 1 0 0-1.238H4.293a.619.619 0 0 0 0 1.238h.99v3.774c.006.165.076.32.195.434m5.698.113a.53.53 0 0 0 .308.058v-.007c.14-.002.278-.033.406-.089.151-.082.344-.303.151-.9l-1.52-3.995a.887.887 0 0 0-1.69 0l-1.52 3.994c-.192.598-.027.819.152.901a1 1 0 0 0 .405.09.52.52 0 0 0 .523-.283l.316-.825h1.96l.288.832a.53.53 0 0 0 .22.223m1.654-.069q.11.041.229.038l2.062-.007a.583.583 0 1 0 0-1.162h-1.375V8.717a.646.646 0 0 0-1.292 0v4.317a.58.58 0 0 0 .376.54m3.308-.062a.64.64 0 0 0 .448.19v-.008a.64.64 0 0 0 .447-.185.7.7 0 0 0 .185-.454V11.68l.22-.22 1.492 1.973a.6.6 0 0 0 .502.248.6.6 0 0 0 .385-.124.6.6 0 0 0 .165-.186.7.7 0 0 0 .082-.234.61.61 0 0 0-.123-.467l-1.561-2.062 1.444-1.451a.48.48 0 0 0 .144-.385.6.6 0 0 0-.192-.399.6.6 0 0 0-.433-.192.5.5 0 0 0-.351.144l-1.774 1.767V8.717a.633.633 0 0 0-1.265 0v4.345c0 .168.067.33.185.45" clip-rule="evenodd"/></svg>
